icon-themes/sifr_svg/cmd/sc_acceptalltrackedchanges.svg

<svg viewBox="0 0 16 16" xmlns="http://www.w3.org/2000/svg"><path d="m12.5 1-5.5 6-2.7-2.5-1.3 1.6 4 3.9 7-7.6zm0 5-5.5 6-2.7-2.5-1.3 1.6 4 3.9 7-7.6z" fill="#555753"/></svg>

<svg xmlns="http://www.w3.org/2000/svg" viewBox="0 0 16 16">
  <path
     style="fill:#555753"
     d="M 12.5 1 L 7 7 L 4.3 4.5 L 3 6.1 L 7 10 L 14 2.4 L 12.5 1 z M 12.5 6 L 7 12 L 4.3 9.5 L 3 11.1 L 7 15 L 14 7.4 L 12.5 6 z "
     />
</svg>
